src/ios-flask-outline.svg

<?xml version="1.0" encoding="utf-8"?>
<!-- Generated by IcoMoon.io -->
<!DOCTYPE svg PUBLIC "-//W3C//DTD SVG 1.1//EN" "http://www.w3.org/Graphics/SVG/1.1/DTD/svg11.dtd">
<svg version="1.1" xmlns="http://www.w3.org/2000/svg" xmlns:xlink="http://www.w3.org/1999/xlink" width="512" height="512" viewBox="0 0 512 512">
<path fill="#000000" d="M436.912 370.441l-116.912-195.441v-127h16v-16h-32v147.418l2.514 3.791 116.575 194.834c6.75 12.818 9.314 25.95 9.001 37.957-0.243 9.339-1.958 17.938-6.545 25.569-8.469 14.097-23.215 22.431-40.564 22.431h-255.888c-17.504 0-32.461-8.435-41.035-22.705-11.897-19.801-10.889-38.145 2.275-63.139l91.488-154.156h58.179v-16h-48.683l14.687-24.756 1.996-3.844v-3.4h48v-16h-48v-32h32v-16h-32v-32h48v-16h-48v-32h-32v16h16v127l-115.874 195.441c-8.412 15.827-12.511 31.373-12.099 45.559 1.061 36.511 28.702 64 65.065 64h255.889c36.291 0 62.131-27.598 62.992-64 0.338-14.244-2.606-29.651-11.061-45.559z"></path>
<path fill="#000000" d="M108.292 374.616c-6.907 10.542-10.936 24.095-10.936 33.55 0 27.584 15.82 39.834 45.682 39.834h225.932c29.804 0 44.975-15.711 45.681-39.959 0.277-9.488-3.143-22.729-10.086-33.324l-71.836-118.717h-153.229l-71.208 118.616zM323.705 272l67.168 110.87 0.151 0.124 0.159 0.182c5.382 8.212 7.647 18.275 7.476 24.18-0.229 7.839-2.477 13.98-6.683 17.795-4.774 4.328-12.729 6.85-23.008 6.85h-225.931c-11.064 0-19.27-2.236-23.73-5.996-1.472-1.24-5.954-5.143-5.954-18.088 0-5.943 2.857-16.383 8.319-24.717l0.177-0.302 0.166-0.042 66.549-110.856h135.141z"></path>
</svg>

<?xml version="1.0" encoding="utf-8"?>
<!-- Generator: Adobe Illustrator 16.2.1, SVG Export Plug-In . SVG Version: 6.00 Build 0)  -->
<!DOCTYPE svg PUBLIC "-//W3C//DTD SVG 1.1//EN" "http://www.w3.org/Graphics/SVG/1.1/DTD/svg11.dtd">
<svg version="1.1" id="Layer_1" xmlns="http://www.w3.org/2000/svg" xmlns:xlink="http://www.w3.org/1999/xlink" x="0px" y="0px"
	 width="512px" height="512px" viewBox="0 0 512 512" enable-background="new 0 0 512 512" xml:space="preserve">
<g>
	<path d="M436.912,370.441L320,175V48h16V32h-16.009H304v16v131.418l2.514,3.791l116.575,194.834
		c6.75,12.818,9.314,25.95,9.001,37.957c-0.243,9.339-1.958,17.938-6.545,25.569C417.076,455.666,402.33,464,384.981,464H129.093
		c-17.504,0-32.461-8.435-41.035-22.705c-11.897-19.801-10.889-38.145,2.275-63.139L181.821,224H240v-16h-48.683l14.687-24.756
		L208,179.4V176h48v-16h-48v-32h32v-16h-32V80h48V64h-48V48V32h-15.989H176v16h16v127L76.126,370.441
		C67.714,386.268,63.615,401.814,64.027,416c1.061,36.511,28.702,64,65.065,64h255.889c36.291,0,62.131-27.598,62.992-64
		C448.311,401.756,445.367,386.349,436.912,370.441z"/>
	<path d="M108.292,374.616c-6.907,10.542-10.936,24.095-10.936,33.55c0,27.584,15.82,39.834,45.682,39.834h225.932
		c29.804,0,44.975-15.711,45.681-39.959c0.277-9.488-3.143-22.729-10.086-33.324L332.729,256H179.5L108.292,374.616z M323.705,272
		l67.168,110.87l0.151,0.124l0.159,0.182c5.382,8.212,7.647,18.275,7.476,24.18c-0.229,7.839-2.477,13.98-6.683,17.795
		c-4.774,4.328-12.729,6.85-23.008,6.85H143.037c-11.064,0-19.27-2.236-23.73-5.996c-1.472-1.24-5.954-5.143-5.954-18.088
		c0-5.943,2.857-16.383,8.319-24.717l0.177-0.302l0.166-0.042L188.564,272H323.705z"/>
</g>
</svg>
